src/svg/tools.svg

<svg height="16" width="16" xmlns="http://www.w3.org/2000/svg" viewBox="0 0 16 16">
  <path d="M4.48 7.27c0.26 0.26 1.28 1.33 1.28 1.33l0.56-0.58-0.88-0.91L7.13 5.31c0 0-0.76-0.74-0.43-0.45 0.32-1.19 0.03-2.51-0.87-3.44C4.93 0.5 3.66 0.2 2.52 0.51l1.93 2-0.51 1.96-1.89 0.52L0.12 2.99c-0.31 1.18-0.02 2.49 0.88 3.41C1.94 7.38 3.29 7.66 4.48 7.27zM10.92 9.21L8.59 11.51l3.84 3.98c0.31 0.33 0.73 0.49 1.14 0.49 0.41 0 0.82-0.16 1.14-0.49 0.63-0.65 0.63-1.7 0-2.35L10.92 9.21zM16 2.53L13.55 0 6.33 7.46l0.88 0.91L2.9 12.83l-0.99 0.53-1.39 2.27 0.35 0.37 2.2-1.44 0.51-1.02 4.32-4.46 0.88 0.91L16 2.53z" />
</svg>

<?xml version="1.0" encoding="UTF-8" standalone="no"?>
<svg width="16px" height="16px" viewBox="0 0 16 16" version="1.1" xmlns="http://www.w3.org/2000/svg" xmlns:xlink="http://www.w3.org/1999/xlink">
    <!-- Generator: Sketch 3.7.1 (28215) - http://www.bohemiancoding.com/sketch -->
    <title>tools</title>
    <desc>Created with Sketch.</desc>
    <defs></defs>
    <g id="Octicons" stroke="none" stroke-width="1" fill="none" fill-rule="evenodd">
        <g id="tools" fill="#000000">
            <path d="M4.48,7.27 C4.74,7.53 5.76,8.6 5.76,8.6 L6.32,8.02 L5.44,7.11 L7.13,5.31 C7.13,5.31 6.37,4.57 6.7,4.86 C7.02,3.67 6.73,2.35 5.83,1.42 C4.93,0.5 3.66,0.2 2.52,0.51 L4.45,2.51 L3.94,4.47 L2.05,4.99 L0.12,2.99 C-0.19,4.17 0.1,5.48 1,6.4 C1.94,7.38 3.29,7.66 4.48,7.27 L4.48,7.27 Z M10.92,9.21 L8.59,11.51 L12.43,15.49 C12.74,15.82 13.16,15.98 13.57,15.98 C13.98,15.98 14.39,15.82 14.71,15.49 C15.34,14.84 15.34,13.79 14.71,13.14 L10.92,9.21 L10.92,9.21 Z M16,2.53 L13.55,0 L6.33,7.46 L7.21,8.37 L2.9,12.83 L1.91,13.36 L0.52,15.63 L0.87,16 L3.07,14.56 L3.58,13.54 L7.9,9.08 L8.78,9.99 L16,2.53 L16,2.53 Z" id="Shape"></path>
        </g>
    </g>
</svg>
